X:1
T:Title
%%score { 1 | ( 2 3 ) }
L:1/8
Q:1/4=82
M:4/8
K:G
V:1 treble nm="Grand Piano"
V:2 bass 
V:3 bass 
V:1
 [B,D][B,G][B,G]>[CA] | [DB][DB] z2 | [DB][DB][Ec]>[EG] | [DB]2 z2 | [CE][EA][EA]>[EG] | Fc z2 | %6
w: C.~A.~Ward * * *||||||
 FcEc | [DB]2 z2 | [B,D][B,G][B,G]>[CA] | [DB][DB] z2 | [^DB][DB][DA]>[EG] | [EG]2 z2 | %12
w: ||||||
 [CE][DF][DG][DA] | [GB]d z2 | DB[FB]>[FA] | G2 z2 | d[GB][G,EG][G,CE] | [G,B,D][B,G] z2 | %18
w: ||||||
 [G,CE][G,CG][G,D][F,CF] | [B,G][B,D] z2 | [B,D][B,D][DG]>A | Bde>d | [Fd]2 [FA]2 | [FA]2 z2 | %24
w: ||||||
 [Gd][DB][G,EG][G,CE] | [G,B,D][B,DG] z2 | [G,CE][G,CG][G,D][CDF] | [B,DG][B,D] z2 | dd/e/dB | %29
w: |||||
 dB[Ec]E | D2 A2 | [B,G]2 z2 |] %32
w: |||
V:2
 [G,,G,][G,,G,][G,,G,]>[G,,G,] | [G,,G,][G,,G,] z2 | [G,,G,][G,,G,][C,G,]>[C,G,] | [G,,G,]2 z2 | %4
 [C,G,][C,C][C,C]>[C,G,] | [D,D]2 z2 | [D,A,D][D,F,D][D,G,D][D,A,D] | [G,,G,]2 z2 | %8
 [G,,G,][G,,G,][G,,G,]>[G,,G,] | [G,,G,][G,,G,] z2 | [B,,F,][B,,F,][B,,F,]>[B,,B,] | [E,B,]2 z2 | %12
 [C,G,][C,A,][B,,G,][A,,F,] | [G,,G,][G,,B,G] z2 | [G,B,][G,DG][K:bass][D,D]>[D,D] | [G,B,]2 z2 | %16
 [G,,B,G][G,,G,]C,C, | G,,G,, z2 | C,C,B,,A,, | [G,,G,][G,,G,] z2 | [G,,G,][G,,G,][B,,G,]>[D,F,D] | %21
 [G,DG][G,B,G][G,CG]>[G,B,G] | [D,A,]2 [D,D]2 | [D,D]2 z2 | [G,,B,][G,,G,]C,C, | G,,G,, z2 | %26
 C,C,B,,A,, | G,,G,, z2 | [G,B,G][G,G]/-[G,CG]/[G,B,G][G,DG] | [G,B,G][G,=F][K:bass][C,G,][C,G,C] | %30
 [D,F,C]2 [D,F,C]2 | [G,,G,]2 z2 |] %32
V:3
 x4 | x4 | x4 | x4 | x4 | z F, z2 | x4 | x4 | x4 | x4 | x4 | x4 | x4 | x4 | x2[K:bass] x2 | x4 | %16
 x4 | x4 | x4 | x4 | x4 | x4 | x4 | x4 | x4 | x4 | x4 | x4 | z .B, z2 | x2[K:bass] x2 | x4 | x4 |] %32

